Numix-Light/16/status/indicator-keyboard-Ja-6.svg

<?xml version="1.0" encoding="UTF-8" standalone="no"?>
<svg
   xmlns:dc="http://purl.org/dc/elements/1.1/"
   xmlns:cc="http://creativecommons.org/ns#"
   xmlns:rdf="http://www.w3.org/1999/02/22-rdf-syntax-ns#"
   xmlns:svg="http://www.w3.org/2000/svg"
   xmlns="http://www.w3.org/2000/svg"
   xmlns:sodipodi="http://sodipodi.sourceforge.net/DTD/sodipodi-0.dtd"
   xmlns:inkscape="http://www.inkscape.org/namespaces/inkscape"
   viewBox="0 0 16 16"
   id="svg2"
   version="1.1"
   inkscape:version="0.91 r13725"
   sodipodi:docname="indicator-keyboard-Ja-6.svg">
  <metadata
     id="metadata14">
    <rdf:RDF>
      <cc:Work
         rdf:about="">
        <dc:format>image/svg+xml</dc:format>
        <dc:type
           rdf:resource="http://purl.org/dc/dcmitype/StillImage" />
      </cc:Work>
    </rdf:RDF>
  </metadata>
  <defs
     id="defs12" />
  <sodipodi:namedview
     pagecolor="#ffffff"
     bordercolor="#666666"
     borderopacity="1"
     objecttolerance="10"
     gridtolerance="10"
     guidetolerance="10"
     inkscape:pageopacity="0"
     inkscape:pageshadow="2"
     inkscape:window-width="459"
     inkscape:window-height="369"
     id="namedview10"
     showgrid="false"
     inkscape:zoom="14.75"
     inkscape:cx="8"
     inkscape:cy="8"
     inkscape:window-x="65"
     inkscape:window-y="24"
     inkscape:window-maximized="0"
     inkscape:current-layer="svg2" />
  <path
     style="fill:#353535;fill-opacity:1"
     d="M 1.5996094 0 C 0.71320937 2.9605947e-16 0 0.71320937 0 1.5996094 L 0 14.400391 C 2.9605947e-16 15.286791 0.71320937 16 1.5996094 16 L 14.400391 16 C 15.286791 16 16 15.286791 16 14.400391 L 16 1.5996094 C 16 0.71320937 15.286791 0 14.400391 0 L 1.5996094 0 z M 4.9960938 4.859375 L 5.6074219 4.859375 L 5.6074219 9.1347656 C 5.6074219 9.4347656 5.5775781 9.7127031 5.5175781 9.9707031 C 5.4575781 10.222703 5.353125 10.444719 5.203125 10.636719 C 5.059125 10.822719 4.8631875 10.970125 4.6171875 11.078125 C 4.3771875 11.180125 4.0749844 11.230469 3.7089844 11.230469 C 3.4929844 11.230469 3.2952344 11.209969 3.1152344 11.167969 C 2.9352344 11.131969 2.7747188 11.087203 2.6367188 11.033203 C 2.4987187 10.979203 2.3831094 10.921328 2.2871094 10.861328 C 2.1971094 10.801328 2.1280781 10.747219 2.0800781 10.699219 L 2.3671875 10.205078 C 2.4211875 10.253078 2.4864531 10.307187 2.5644531 10.367188 C 2.6484531 10.421187 2.7455156 10.471531 2.8535156 10.519531 C 2.9615156 10.567531 3.0808906 10.606719 3.2128906 10.636719 C 3.3448906 10.666719 3.4885313 10.681641 3.6445312 10.681641 C 4.1065312 10.681641 4.4461094 10.562266 4.6621094 10.322266 C 4.8841094 10.076265 4.9960938 9.6583125 4.9960938 9.0703125 L 4.9960938 4.859375 z M 8.5722656 6.3359375 C 8.8782656 6.3359375 9.1357031 6.3807031 9.3457031 6.4707031 C 9.5617031 6.5547031 9.7351875 6.6740781 9.8671875 6.8300781 C 9.9991873 6.9800781 10.09625 7.1591406 10.15625 7.3691406 C 10.21625 7.5791406 10.246094 7.8086875 10.246094 8.0546875 L 10.246094 10.988281 C 10.186094 11.006281 10.098375 11.026781 9.984375 11.050781 C 9.870375 11.068781 9.7378906 11.089281 9.5878906 11.113281 C 9.4378906 11.137281 9.2699844 11.155969 9.0839844 11.167969 C 8.9039844 11.185969 8.7173906 11.195313 8.5253906 11.195312 C 8.2793906 11.195312 8.0517969 11.167281 7.8417969 11.113281 C 7.6377969 11.059281 7.4587344 10.975328 7.3027344 10.861328 C 7.1527344 10.741328 7.0314063 10.592109 6.9414062 10.412109 C 6.8574063 10.226109 6.8164062 10.000328 6.8164062 9.7363281 C 6.8164062 9.4843281 6.8649375 9.2698437 6.9609375 9.0898438 C 7.0569375 8.9098438 7.1912344 8.7624375 7.3652344 8.6484375 C 7.5392344 8.5284375 7.7463281 8.4407187 7.9863281 8.3867188 C 8.2263281 8.3327188 8.4875313 8.3066406 8.7695312 8.3066406 C 8.8535312 8.3066406 8.94125 8.3122187 9.03125 8.3242188 C 9.12725 8.3302187 9.2167813 8.341375 9.3007812 8.359375 C 9.3907813 8.371375 9.4653906 8.3862969 9.5253906 8.4042969 C 9.5913906 8.4162969 9.6361563 8.4294063 9.6601562 8.4414062 L 9.6601562 8.1523438 C 9.6601562 7.9903438 9.649 7.8355469 9.625 7.6855469 C 9.601 7.5295469 9.5468906 7.3914844 9.4628906 7.2714844 C 9.3848906 7.1454844 9.2710938 7.0466094 9.1210938 6.9746094 C 8.9770938 6.8966094 8.7849219 6.8574219 8.5449219 6.8574219 C 8.2029219 6.8574219 7.9472969 6.8816875 7.7792969 6.9296875 C 7.6112969 6.9776875 7.4881563 7.016875 7.4101562 7.046875 L 7.3300781 6.5332031 C 7.4320781 6.4852031 7.586875 6.4404375 7.796875 6.3984375 C 8.012875 6.3564375 8.2722656 6.3359375 8.5722656 6.3359375 z M 8.7519531 8.8105469 C 8.6079531 8.8105469 8.4567813 8.8217031 8.3007812 8.8457031 C 8.1447812 8.8637031 8.0011406 8.9084687 7.8691406 8.9804688 C 7.7371406 9.0464688 7.6289219 9.1397656 7.5449219 9.2597656 C 7.4609219 9.3797656 7.4199219 9.5383281 7.4199219 9.7363281 C 7.4199219 9.9103281 7.446 10.057734 7.5 10.177734 C 7.56 10.297734 7.6421406 10.394797 7.7441406 10.466797 C 7.8521406 10.538797 7.9770938 10.592906 8.1210938 10.628906 C 8.2710937 10.658906 8.439 10.673828 8.625 10.673828 C 8.853 10.673828 9.05075 10.666297 9.21875 10.654297 C 9.39275 10.636297 9.5401563 10.615797 9.6601562 10.591797 L 9.6601562 8.953125 C 9.5941563 8.923125 9.4897031 8.8932812 9.3457031 8.8632812 C 9.2017031 8.8272812 9.0039531 8.8105469 8.7519531 8.8105469 z M 13.652344 8.8242188 L 13.675781 9.1464844 C 13.437881 9.1620844 13.216472 9.1993125 13.013672 9.2578125 C 12.814772 9.3124125 12.638422 9.4005844 12.482422 9.5214844 C 12.326422 9.6384843 12.195144 9.7893625 12.089844 9.9765625 C 11.984544 10.163763 11.912047 10.394969 11.873047 10.667969 C 11.978347 10.613369 12.105706 10.566344 12.253906 10.527344 C 12.402106 10.484444 12.558862 10.462891 12.726562 10.462891 C 12.944963 10.462891 13.131103 10.498159 13.283203 10.568359 C 13.435303 10.634659 13.558744 10.722838 13.652344 10.835938 C 13.745944 10.949038 13.812569 11.080316 13.855469 11.228516 C 13.898369 11.376716 13.919922 11.533466 13.919922 11.697266 C 13.919922 11.849366 13.896409 12.000244 13.849609 12.152344 C 13.802809 12.304444 13.730306 12.443559 13.628906 12.568359 C 13.531406 12.689259 13.406006 12.789187 13.253906 12.867188 C 13.105706 12.945188 12.927403 12.984375 12.720703 12.984375 C 12.295603 12.984375 11.9723 12.835463 11.75 12.539062 C 11.5316 12.238762 11.421875 11.821409 11.421875 11.287109 C 11.421875 10.495409 11.611934 9.8958281 11.990234 9.4863281 C 12.372434 9.0768281 12.926944 8.8554188 13.652344 8.8242188 z M 12.691406 10.794922 C 12.512006 10.794922 12.35525 10.816475 12.21875 10.859375 C 12.08615 10.898375 11.96075 10.9454 11.84375 11 C 11.83595 11.0663 11.832031 11.119203 11.832031 11.158203 L 11.832031 11.292969 C 11.832031 11.476269 11.843787 11.650653 11.867188 11.814453 C 11.894488 11.978253 11.941512 12.121294 12.007812 12.246094 C 12.078013 12.370894 12.170103 12.470822 12.283203 12.544922 C 12.396303 12.615122 12.539344 12.650391 12.714844 12.650391 C 12.859144 12.650391 12.982584 12.624919 13.083984 12.574219 C 13.185384 12.519619 13.267678 12.449081 13.330078 12.363281 C 13.392478 12.277481 13.437544 12.177553 13.464844 12.064453 C 13.496044 11.951353 13.511719 11.833784 13.511719 11.708984 C 13.511719 11.396984 13.441181 11.165778 13.300781 11.017578 C 13.164281 10.869378 12.960506 10.794922 12.691406 10.794922 z "
     id="path4" />
</svg>

<svg xmlns="http://www.w3.org/2000/svg" viewBox="0 0 16 16">
 <path d="m 1.6 0 c -0.886 0 -1.6 0.713 -1.6 1.6 l 0 12.801 c 0 0.886 0.713 1.6 1.6 1.6 l 12.801 0 c 0.886 0 1.6 -0.713 1.6 -1.6 l 0 -12.801 c 0 -0.886 -0.713 -1.6 -1.6 -1.6 l -12.801 0 z m 3.396 4.859 l 0.611 0 l 0 4.275 c 0 0.3 -0.03 0.578 -0.09 0.836 c -0.06 0.252 -0.164 0.474 -0.314 0.666 c -0.144 0.186 -0.34 0.333 -0.586 0.441 c -0.24 0.102 -0.542 0.152 -0.908 0.152 c -0.216 0 -0.414 -0.021 -0.594 -0.063 c -0.18 -0.036 -0.341 -0.081 -0.479 -0.135 c -0.138 -0.054 -0.254 -0.112 -0.35 -0.172 c -0.09 -0.06 -0.159 -0.114 -0.207 -0.162 l 0.287 -0.494 c 0.054 0.048 0.119 0.102 0.197 0.162 c 0.084 0.054 0.181 0.104 0.289 0.152 c 0.108 0.048 0.227 0.087 0.359 0.117 c 0.132 0.03 0.276 0.045 0.432 0.045 c 0.462 0 0.802 -0.119 1.018 -0.359 c 0.222 -0.246 0.334 -0.664 0.334 -1.252 l 0 -4.211 z m 3.576 1.477 c 0.306 0 0.563 0.045 0.773 0.135 c 0.216 0.084 0.389 0.203 0.521 0.359 c 0.132 0.15 0.229 0.329 0.289 0.539 c 0.06 0.21 0.09 0.44 0.09 0.686 l 0 2.934 c -0.06 0.018 -0.148 0.038 -0.262 0.063 c -0.114 0.018 -0.246 0.038 -0.396 0.063 c -0.15 0.024 -0.318 0.043 -0.504 0.055 c -0.18 0.018 -0.367 0.027 -0.559 0.027 c -0.246 0 -0.474 -0.028 -0.684 -0.082 c -0.204 -0.054 -0.383 -0.138 -0.539 -0.252 c -0.15 -0.12 -0.271 -0.269 -0.361 -0.449 c -0.084 -0.186 -0.125 -0.412 -0.125 -0.676 c 0 -0.252 0.049 -0.466 0.145 -0.646 c 0.096 -0.18 0.23 -0.327 0.404 -0.441 c 0.174 -0.12 0.381 -0.208 0.621 -0.262 c 0.24 -0.054 0.501 -0.08 0.783 -0.08 c 0.084 0 0.172 0.006 0.262 0.018 c 0.096 0.006 0.186 0.017 0.27 0.035 c 0.09 0.012 0.165 0.027 0.225 0.045 c 0.066 0.012 0.111 0.025 0.135 0.037 l 0 -0.289 c 0 -0.162 -0.011 -0.317 -0.035 -0.467 c -0.024 -0.156 -0.078 -0.294 -0.162 -0.414 c -0.078 -0.126 -0.192 -0.225 -0.342 -0.297 c -0.144 -0.078 -0.336 -0.117 -0.576 -0.117 c -0.342 0 -0.598 0.024 -0.766 0.072 c -0.168 0.048 -0.291 0.087 -0.369 0.117 l -0.08 -0.514 c 0.102 -0.048 0.257 -0.093 0.467 -0.135 c 0.216 -0.042 0.475 -0.063 0.775 -0.063 z m 0.18 2.475 c -0.144 0 -0.295 0.011 -0.451 0.035 c -0.156 0.018 -0.3 0.063 -0.432 0.135 c -0.132 0.066 -0.24 0.159 -0.324 0.279 c -0.084 0.12 -0.125 0.279 -0.125 0.477 c 0 0.174 0.026 0.321 0.08 0.441 c 0.06 0.12 0.142 0.217 0.244 0.289 c 0.108 0.072 0.233 0.126 0.377 0.162 c 0.15 0.03 0.318 0.045 0.504 0.045 c 0.228 0 0.426 -0.008 0.594 -0.02 c 0.174 -0.018 0.321 -0.038 0.441 -0.063 l 0 -1.639 c -0.066 -0.03 -0.17 -0.06 -0.314 -0.09 c -0.144 -0.036 -0.342 -0.053 -0.594 -0.053 z m 4.9 0.014 l 0.023 0.322 c -0.238 0.016 -0.459 0.053 -0.662 0.111 c -0.199 0.055 -0.375 0.143 -0.531 0.264 c -0.156 0.117 -0.287 0.268 -0.393 0.455 c -0.105 0.187 -0.178 0.418 -0.217 0.691 c 0.105 -0.055 0.233 -0.102 0.381 -0.141 c 0.148 -0.043 0.305 -0.064 0.473 -0.064 c 0.218 0 0.405 0.035 0.557 0.105 c 0.152 0.066 0.276 0.154 0.369 0.268 c 0.094 0.113 0.16 0.244 0.203 0.393 c 0.043 0.148 0.064 0.305 0.064 0.469 c 0 0.152 -0.024 0.303 -0.07 0.455 c -0.047 0.152 -0.119 0.291 -0.221 0.416 c -0.098 0.121 -0.223 0.221 -0.375 0.299 c -0.148 0.078 -0.327 0.117 -0.533 0.117 c -0.425 0 -0.748 -0.149 -0.971 -0.445 c -0.218 -0.3 -0.328 -0.718 -0.328 -1.252 c 0 -0.792 0.19 -1.391 0.568 -1.801 c 0.382 -0.409 0.937 -0.631 1.662 -0.662 z m -0.961 1.971 c -0.179 0 -0.336 0.022 -0.473 0.064 c -0.133 0.039 -0.258 0.086 -0.375 0.141 c -0.008 0.066 -0.012 0.119 -0.012 0.158 l 0 0.135 c 0 0.183 0.012 0.358 0.035 0.521 c 0.027 0.164 0.074 0.307 0.141 0.432 c 0.07 0.125 0.162 0.225 0.275 0.299 c 0.113 0.07 0.256 0.105 0.432 0.105 c 0.144 0 0.268 -0.025 0.369 -0.076 c 0.101 -0.055 0.184 -0.125 0.246 -0.211 c 0.062 -0.086 0.107 -0.186 0.135 -0.299 c 0.031 -0.113 0.047 -0.231 0.047 -0.355 c 0 -0.312 -0.071 -0.543 -0.211 -0.691 c -0.136 -0.148 -0.34 -0.223 -0.609 -0.223 z" style="fill:#353535;fill-opacity:1"/>
</svg>
